X: 10
T:Muiñeira de Lugo
M:6/8
L:1/8
C:Trad.
R:Muiñeira
A:Galicia
N:Repertorio básic
K:D
dc| A4 dc | A4 dc | ABA EFG | "~"B2 A2 dc| A4 dc | A4 dc | ABA GFE |1 D4
:|2
|: 
D"F."A D {C}D"F."A D | {C}D2 E FDE | C2 E {D}E"F."A E | {D}E2 F GEF |
D"F."A D {C}D"F."A D| {C}D2 E FDE | C2 G{D}
GAG FGF EFE 
:| {C}D4 
||

